svg/list.svg

<svg width="32" height="32" viewBox="0 0 32 32" xmlns="http://www.w3.org/2000/svg"><title>ic_menu</title><path d="M22.9991283,22 C23.5518945,22 24,21.5561352 24,21 L24,21 C24,20.4477153 23.5553691,20 22.9991283,20 L9.00087166,20 C8.4481055,20 8,20.4438648 8,21 L8,21 C8,21.5522847 8.44463086,22 9.00087166,22 L22.9991283,22 Z M22.9991283,17 C23.5518945,17 24,16.5561352 24,16 L24,16 C24,15.4477153 23.5553691,15 22.9991283,15 L9.00087166,15 C8.4481055,15 8,15.4438648 8,16 L8,16 C8,16.5522847 8.44463086,17 9.00087166,17 L22.9991283,17 Z M8,11 C8,11.5522847 8.44463086,12 9.00087166,12 L22.9991283,12 C23.5518945,12 24,11.5561352 24,11 L24,11 C24,10.4477153 23.5553691,10 22.9991283,10 L9.00087166,10 C8.4481055,10 8,10.4438648 8,11 L8,11 Z" fill-rule="evenodd"/></svg>

<svg width="32" height="32" viewBox="0 0 32 32" xmlns="http://www.w3.org/2000/svg"><path d="M23 22c.552 0 1-.444 1-1 0-.552-.445-1-1-1H9c-.552 0-1 .444-1 1 0 .552.445 1 1 1h14zm0-5c.552 0 1-.444 1-1 0-.552-.445-1-1-1H9c-.552 0-1 .444-1 1 0 .552.445 1 1 1h14zM8 11c0 .552.445 1 1 1h14c.552 0 1-.444 1-1 0-.552-.445-1-1-1H9c-.552 0-1 .444-1 1z" fill-rule="evenodd"/></svg>
